frontend/src/icons/home.svg

<svg width="20" height="17" viewBox="0 0 20 17" fill="none" xmlns="http://www.w3.org/2000/svg">
<path id="Vector" d="M8 16V11H12V16C12 16.55 12.45 17 13 17H16C16.55 17 17 16.55 17 16V8.99997H18.7C19.16 8.99997 19.38 8.42997 19.03 8.12997L10.67 0.599971C10.29 0.259971 9.71 0.259971 9.33 0.599971L0.969999 8.12997C0.629999 8.42997 0.839999 8.99997 1.3 8.99997H3V16C3 16.55 3.45 17 4 17H7C7.55 17 8 16.55 8 16Z" fill="black"/>
</svg>

<svg xmlns="http://www.w3.org/2000/svg" viewBox="0 0 20 17"><path d="M8 16v-5h4v5c0 .55.45 1 1 1h3c.55 0 1-.45 1-1V9h1.7c.46 0 .68-.57.33-.87L10.67.6c-.38-.34-.96-.34-1.34 0L.97 8.13c-.34.3-.13.87.33.87H3v7c0 .55.45 1 1 1h3c.55 0 1-.45 1-1z"/></svg>
